svg/Pictogram/pictograms-aem-0118-crush_of_fingers_or_hand-force_applied_from_side.svg

<?xml version="1.0" encoding="ISO-8859-1" standalone="yes"?>
<svg height="305.909" width="305.909">
  <metadata>
    <rdf:RDF xmlns:cc="http://web.resource.org/cc/" xmlns:dc="http://purl.org/dc/elements/1.1/" xmlns:rdf="http://www.w3.org/1999/02/22-rdf-syntax-ns#">
      <cc:Work rdf:about="">
        <dc:title></dc:title>
        <dc:description></dc:description>
        <dc:subject>
          <rdf:Bag>
            <rdf:li></rdf:li>
          </rdf:Bag>
        </dc:subject>
        <dc:publisher>
          <cc:Agent rdf:about="http://www.unece.org/trans/danger/publi/ghs/pictograms.html">
            <dc:title>Source: UNECE GHS of Classification and Labeling of Chemicals, Source: AEM Pictorial Database, Source: AEM Pictorial Database, Source: AEM Pictorial Database, Source: AEM Pictorial Database</dc:title>
          </cc:Agent>
        </dc:publisher>
        <dc:creator>
          <cc:Agent>
            <dc:title></dc:title>
          </cc:Agent>
        </dc:creator>
        <dc:rights>
          <cc:Agent>
            <dc:title></dc:title>
          </cc:Agent>
        </dc:rights>
        <dc:date></dc:date>
        <dc:format>image/svg+xml</dc:format>
        <dc:type rdf:resource="http://purl.org/dc/dcmitype/StillImage"/>
        <cc:license rdf:resource="http://en.wikipedia.org/wiki/Public_domain"/>
        <dc:language>en</dc:language>
      </cc:Work>
    </rdf:RDF>
  </metadata>
  <defs><marker id="ArrowEnd" markerHeight="3" markerUnits="strokeWidth" markerWidth="4" orient="auto" refX="0" refY="5" viewBox="0 0 10 10"><path d="M 0 0 L 10 5 L 0 10 z"/></marker><marker id="ArrowStart" markerHeight="3" markerUnits="strokeWidth" markerWidth="4" orient="auto" refX="10" refY="5" viewBox="0 0 10 10"><path d="M 10 0 L 0 5 L 10 10 z"/></marker> </defs>
  <g id="g2958" transform="matrix(1.3532768,0,0,1.3532781,-53.207834,-52.192858)">
    <path d="M 159.522 145.671L 164.538 109.897C 164.538 109.897 172.932 104.046 177.765 100.229C 184.706 94.7534 187.436 84.6044 181.069 76.3274L 148.007 99.9794L 142.159 133.808C 142.159 133.808 138.597 110.151 137.069 99.9794C 135.151 87.1864 122.206 83.3544 116.472 84.7184C 116.472 84.7184 126.39 145.249 127.409 149.827C 128.425 154.401 125.882 159.999 123.343 163.558L 116.268 174.608L 116.268 205.265L 96.3665 205.339L 57.2259 265.96L 122.589 265.96L 138.85 236.55L 172.679 220.527L 212.097 240.87C 217.53 232.093 213.19 219.39 203.452 214.167L 181.616 203.253L 151.206 203.253L 151.206 145.675L 159.522 145.675" style="stroke:none; fill-rule:evenodd; fill:#000000"/>
    <path d="M 163.104 145.671L 166.319 123.374L 200.397 95.9094C 204.975 101.253 207.011 112.69 197.6 120.323C 189.479 126.909 183.358 132.276 183.358 132.276L 181.011 145.675L 163.104 145.675" style="stroke:none; fill-rule:evenodd; fill:#000000"/>
    <path d="M 72.472 202.726L 113.675 202.726L 113.675 50.6404L 72.472 50.6404L 72.472 202.726z" style="stroke:none; fill-rule:evenodd; fill:#ffffff"/>
    <path d="M 72.472 202.726L 113.675 202.726L 113.675 50.6404L 72.472 50.6404L 72.472 202.726z" style="stroke:none; fill-rule:evenodd; fill:#000000"/>
    <path d="M 153.854 200.69L 153.854 148.296L 253.073 148.296L 253.073 200.69L 153.854 200.69zM 221.753 166.862L 197.093 166.862L 197.093 158.726L 169.624 174.495L 197.093 190.261L 197.093 182.124L 221.753 182.124L 221.753 166.862" style="stroke:none; fill-rule:evenodd; fill:#000000"/>
    <path d="M 29.6204 267.288L 2.62042 267.288" style="stroke:#000000; stroke-width:0.5; fill:none"/>
    <path d="M 38.6204 276.288L 38.6204 303.288" style="stroke:#000000; stroke-width:0.5; fill:none"/>
    <path d="M 29.6204 38.6244L 2.62042 38.6244" style="stroke:#000000; stroke-width:0.5; fill:none"/>
    <path d="M 38.6204 29.6244L 38.6204 2.62042" style="stroke:#000000; stroke-width:0.5; fill:none"/>
    <path d="M 276.288 38.6244L 303.288 38.6244" style="stroke:#000000; stroke-width:0.5; fill:none"/>
    <path d="M 267.288 29.6244L 267.288 2.62042" style="stroke:#000000; stroke-width:0.5; fill:none"/>
    <path d="M 276.288 267.288L 303.288 267.288" style="stroke:#000000; stroke-width:0.5; fill:none"/>
    <path d="M 267.288 276.288L 267.288 303.288" style="stroke:#000000; stroke-width:0.5; fill:none"/>
  </g>
</svg>

<svg viewBox="0 0 305.91 305.91"><g transform="matrix(1.35328 0 0 1.35328-53.21-52.19)" fill-rule="evenodd"><path d="m159.52 145.67l5.02-35.774c0 0 8.394-5.851 13.227-9.668 6.941-5.476 9.671-15.625 3.304-23.902l-33.06 23.652-5.848 33.829c0 0-3.562-23.657-5.09-33.829-1.918-12.793-14.863-16.625-20.597-15.261 0 0 9.918 60.53 10.937 65.11 1.016 4.574-1.527 10.172-4.066 13.731l-7.08 11.05v30.657l-19.901.074-39.14 60.62h65.36l16.261-29.41 33.829-16.02 39.42 20.343c5.433-8.777 1.093-21.48-8.645-26.703l-21.836-10.914h-30.41v-57.58h8.316"/><path d="m163.1 145.67l3.215-22.297 34.08-27.465c4.578 5.344 6.614 16.781-2.797 24.414-8.121 6.586-14.242 11.953-14.242 11.953l-2.347 13.399h-17.907"/><path d="m72.47 202.73h41.2v-152.09h-41.2v152.09" fill="#fff"/><path d="m72.47 202.73h41.2v-152.09h-41.2v152.09"/><path d="m153.85 200.69v-52.39h99.22v52.39h-99.22m67.899-33.828h-24.66v-8.136l-27.469 15.769 27.469 15.766v-8.137h24.66v-15.262"/></g></svg>
